X: 15
T:Captain Leno
M:6/8
L:1/8
R:Jig
N:http://www.lesession.co.uk
Z:Steve Mansfield 1998-2001
K:G
G2 B d2 d | gfe d3 | cdc BcB | ABA B2 G | 
G2 B d2 d | gfe d3 | cdc BcB | ABA G3 :: 
B3 B3 | BAB c3 | B2 c d2 c | B2 A B2 G | 
B3 B3 | BAB c3 | B2 g dBG | ABA G3 :|
<end>
<start>
